X: 9888
T: Derry, The
R: reel
M: 4/4
K: Amajor
~c3B ABcA|~B2cB AFEF|ABce aAgA|(3fga ec BcAB|~c3B ABcA|
~B2cA BAFB|1 ABce (3fga ec|BccB A2BA:|2 ABce fece|fege a3g||
|:~f3e cfaf|geBe gaag|~f3e cfaf|gfeg ~f3g|aecB ABcA|
~B2cA BAFB|1 ABce fece|fege a2ga:|2 ABce (3fga ec|BccB A2BA||

